svg/furkot/icomoon/cog.svg

<svg viewBox="0 0 512 512" xmlns="http://www.w3.org/2000/svg"><path d="m466.896 305.128c-26.864-46.528-10.712-106.152 36.08-133.24l-50.312-87.144c-14.376 8.424-31.088 13.256-48.92 13.256-53.768 0-97.352-43.872-97.352-97.992h-100.632c.136 16.704-4.04 33.64-12.976 49.128-26.864 46.528-86.576 62.352-133.432 35.376l-50.312 87.144c14.488 8.232 27.024 20.296 35.944 35.736 26.816 46.456 10.76 105.96-35.856 133.112l50.312 87.144c14.328-8.352 30.96-13.128 48.704-13.128 53.6 0 97.072 43.6 97.352 97.48h100.624c-.04-16.536 4.136-33.288 12.984-48.608 26.816-46.456 86.384-62.296 133.208-35.504l50.312-87.144c-14.392-8.232-26.848-20.248-35.72-35.616zm-210.896 54.536c-57.256 0-103.672-46.408-103.672-103.664s46.416-103.664 103.672-103.664 103.664 46.416 103.664 103.664-46.408 103.664-103.664 103.664z"/></svg>

<svg xmlns="http://www.w3.org/2000/svg" viewBox="0 0 512 512"><path d="M466.896 305.128C440.032 258.6 456.184 198.976 502.976 171.888L452.664 84.744C438.288 93.168 421.576 98 403.744 98 349.976 98 306.392 54.128 306.392 0.008H205.76C205.896 16.712 201.72 33.648 192.784 49.136 165.92 95.664 106.208 111.488 59.352 84.512L9.04 171.656C23.528 179.888 36.064 191.952 44.984 207.392 71.8 253.848 55.744 313.352 9.128 340.504L59.44 427.648C73.768 419.296 90.4 414.52 108.144 414.52 161.744 414.52 205.216 458.12 205.496 512H306.12C306.08 495.464 310.256 478.712 319.104 463.392 345.92 416.936 405.488 401.096 452.312 427.888L502.624 340.744C488.232 332.512 475.776 320.496 466.904 305.128ZM256 359.664C198.744 359.664 152.328 313.256 152.328 256S198.744 152.336 256 152.336C313.256 152.336 359.664 198.752 359.664 256S313.256 359.664 256 359.664Z"/></svg>
